ufans-frontend-package/public/assets/images/upload-image.svg

<svg xmlns="http://www.w3.org/2000/svg" xmlns:xlink="http://www.w3.org/1999/xlink" width="122.88" height="110.9" viewBox="0 0 122.88 110.9">
  <defs>
    <clipPath id="clip-path">
      <rect id="Rectangle_1" data-name="Rectangle 1" width="122.88" height="110.9" fill="#e44499"/>
    </clipPath>
  </defs>
  <g id="upload-image" clip-path="url(#clip-path)">
    <path id="Path_1" data-name="Path 1" d="M13.09,46.93H43.67V59.38H78.16V46.93h31.47L61.39,0ZM61.44,97.88l47.51-.14,4.54-21.51,9.38.31v34.35L0,110.9V76.54l9.39-.31,4.54,21.51ZM43.67,82.57H78.16V77.95H43.67Zm0-9.31H78.16V63.82H43.67Z" fill="#e44499" fill-rule="evenodd"/>
  </g>
</svg>

<svg width="123" height="111" viewBox="0 0 123 111" fill="none" xmlns="http://www.w3.org/2000/svg">
<g clip-path="url(#clip0_1_8)">
<path fill-rule="evenodd" clip-rule="evenodd" d="M13.09 46.93H43.67V59.38H78.16V46.93H109.63L61.39 0L13.09 46.93ZM61.44 97.88L108.95 97.74L113.49 76.23L122.87 76.54V110.89L0 110.9V76.54L9.39 76.23L13.93 97.74L61.44 97.88ZM43.67 82.57H78.16V77.95H43.67V82.57ZM43.67 73.26H78.16V63.82H43.67V73.26Z" fill="#6661E7"/>
</g>
<defs>
<clipPath id="clip0_1_8">
<rect width="122.88" height="110.9" fill="white"/>
</clipPath>
</defs>
</svg>
